X:1
T:He Who Safely Keepeth
T:He Who Safely Keepeth
T:Ira David Sankey
T:Frances Jane (Fanny) Crosby, 1902
T:Public Domain Courtesy of the Cyber Hymnal™
C:Ira David Sankey
Z:Public Domain
Z:Courtesy of the Cyber Hymnal™
%%score ( 1 2 ) ( 3 4 )
L:1/8
Q:1/4=103
M:4/4
K:Ab
V:1 treble 
V:2 treble 
V:3 bass 
V:4 bass 
V:1
 [CE]2 [CA]2 [CA]2 [EA]2 | [DA]4 [DG]4 | E2 [Ed]2 [Ed]2 [Ed]2 | [Fd]4 [Ec]4 | %4
w: 1.~He who safe- ly|keep- eth,|Slum- bers not, nor|sleep- eth;|
w: 2.~He will keep me|ev- er,|Where no power can|sev- er|
w: 3.~He will keep me|ev- er;|Like a gen- tle|riv- er|
 [DF]2 [DF]2 [DA]2 [DA]2 | [CE]2 [CE]2 [EA]2 [Ec]2 | [=Dc]2 [DB]2 [DF]2 [DB]2 | B6 x2 | %8
w: Tho’ by all the|world for- sak- en,|Where- fore should I|fear?|
w: From my heart the|love that hides me,|In His se- cret|place;|
w: Peace from Him, my|Lord and Sav- ior,|Comes with joy to|me;|
 [CE]2 [CA]2 [EA]2 [CA]2 | [DA]4 [DG]4 | E2 [Ed]2 [Ed]2 [Ed]2 | [Fd]4 [Ec]4 | %12
w: That which He hath|spo- ken|Ne- ver can be|bro- ken;|
w: There in faith a-|bid- ing,|All to Him con-|fid- ing,|
w: In its qui- et|flow- ing,|Life and health bes-|tow- ing,|
 [Ec]2 [_Ge]2 [Ge]2 [Fe]2 | [Fe]2 [Fd]2 [DF]2 [FB]2 | [EA]4 [DG]4 | [CA]8 |] %16
w: Who shall harm the|trust- ing heart When|He is|near?|
w: Thro’ His Spir- it|I am sealed An|heir of|grace.|
w: Till with- in the|gates of pearl The|King I|see!|
V:2
 x8 | x8 | E2 x6 | x8 | x8 | x8 | x8 | (E4 D4) | x8 | x8 | E2 x6 | x8 | x8 | x8 | x8 | x8 |] %16
V:3
 [A,,A,]2 [A,,A,]2 [A,,A,]2 [C,A,]2 | [E,B,]4 [E,B,]4 | [E,G,]2 [E,G,]2 [F,A,]2 [G,B,]2 | A,4 A,4 | %4
 [D,A,]2 [D,A,]2 [F,A,]2 [F,A,]2 | A,2 [E,A,]2 [C,A,]2 [A,,A,]2 | %6
 [B,,F,]2 [B,,B,]2 [B,,B,]2 [B,,A,]2 | [E,G,]8 | A,2 [E,A,]2 [C,A,]2 [A,,A,]2 | [E,B,]4 [E,B,]4 | %10
 [E,G,]2 [E,G,]2 [F,A,]2 [G,B,]2 | A,4 A,4 | A,2 [_A,C]2 [=A,C]2 [A,C]2 | %13
 B,2 B,2 [B,,B,]2 [B,,D]2 | [E,C]4 [E,B,]4 | [A,,A,]8 |] %16
V:4
 x8 | x8 | x8 | A,4 A,4 | x8 | A,2 x6 | x8 | x8 | A,2 x6 | x8 | x8 | A,4 A,4 | =A,2 x6 | %13
 B,2 B,2 x4 | x8 | x8 |] %16

